public/assets/images/utils/briefcase-01.svg

<svg width="14" height="14" viewBox="0 0 14 14" fill="none" xmlns="http://www.w3.org/2000/svg">
<path d="M9.33268 4.08333C9.33268 3.54085 9.33268 3.26961 9.27305 3.04707C9.11123 2.44316 8.63953 1.97145 8.03562 1.80963C7.81307 1.75 7.54183 1.75 6.99935 1.75C6.45687 1.75 6.18562 1.75 5.96308 1.80963C5.35917 1.97145 4.88746 2.44316 4.72565 3.04707C4.66602 3.26961 4.66602 3.54085 4.66602 4.08333M3.03268 12.25H10.966C11.6194 12.25 11.9461 12.25 12.1957 12.1228C12.4152 12.011 12.5937 11.8325 12.7055 11.613C12.8327 11.3634 12.8327 11.0367 12.8327 10.3833V5.95C12.8327 5.29661 12.8327 4.96991 12.7055 4.72034C12.5937 4.50082 12.4152 4.32234 12.1957 4.21049C11.9461 4.08333 11.6194 4.08333 10.966 4.08333H3.03268C2.37929 4.08333 2.05259 4.08333 1.80303 4.21049C1.5835 4.32234 1.40503 4.50082 1.29317 4.72034C1.16602 4.96991 1.16602 5.29661 1.16602 5.95V10.3833C1.16602 11.0367 1.16602 11.3634 1.29317 11.613C1.40503 11.8325 1.5835 12.011 1.80303 12.1228C2.05259 12.25 2.37929 12.25 3.03268 12.25Z" stroke="#60646C" stroke-linecap="round" stroke-linejoin="round"/>
</svg>

<svg xmlns="http://www.w3.org/2000/svg" fill="none" viewBox="0 0 14 14"><path stroke="#60646c" stroke-linecap="round" stroke-linejoin="round" d="M9.333 4.083c0-.542 0-.813-.06-1.036A1.75 1.75 0 0 0 8.036 1.81c-.223-.06-.494-.06-1.037-.06s-.813 0-1.036.06a1.75 1.75 0 0 0-1.237 1.237c-.06.223-.06.494-.06 1.036M3.033 12.25h7.933c.653 0 .98 0 1.23-.127.22-.112.398-.29.51-.51.127-.25.127-.576.127-1.23V5.95c0-.653 0-.98-.127-1.23a1.17 1.17 0 0 0-.51-.51c-.25-.127-.577-.127-1.23-.127H3.033c-.654 0-.98 0-1.23.127-.22.112-.398.29-.51.51-.127.25-.127.577-.127 1.23v4.433c0 .654 0 .98.127 1.23.112.22.29.398.51.51.25.127.576.127 1.23.127"/></svg>
